src/images/svg/academy/email1.svg

<svg width="64" height="64" viewBox="0 0 64 64" fill="none" xmlns="http://www.w3.org/2000/svg">
<path fill-rule="evenodd" clip-rule="evenodd" d="M11 26.0119V38.045L22.369 44.0638C25.5388 41.4826 27.9441 39.5292 29.5867 38.2025C31.0143 37.1225 32.9857 37.1225 34.4384 38.2221C36.0696 39.5399 38.4688 41.4863 41.6361 44.0611L53 38.045V26.0147C52.9998 26.0044 52.9998 25.994 53 25.9837V3.07791C53.0005 2.52865 52.5796 2.07631 52.09 2.05263L11.955 2.05159C11.4204 2.07631 10.9995 2.52865 11 3.07895V25.9867C11.0001 25.9951 11.0001 26.0035 11 26.0119ZM43.3216 45.4317C48.0729 49.2964 54.299 54.3679 62 60.6465V32.3548L55 27.8359V36.9862L58.5319 35.1164C59.02 34.858 59.6252 35.0442 59.8836 35.5323C60.142 36.0204 59.9558 36.6255 59.4677 36.8839L43.3216 45.4317ZM60.4602 61.9716C46.4142 50.5201 37.3213 43.1223 33.2067 39.7975C32.4929 39.2575 31.5071 39.2575 30.8184 39.7779C26.6796 43.1215 17.6038 50.5198 3.59278 61.9712L60.4602 61.9716ZM1.99949 60.6904L1.99999 32.272C2.06294 32.2314 2.13589 32.1854 2.21908 32.134C2.41198 32.0148 2.64528 31.8747 3.02097 31.6519L3.53279 31.3487C3.75273 31.2184 3.93086 31.1126 4.1109 31.0053C5.86891 29.957 7.42061 28.9846 9 27.9133V36.9862L5.46806 35.1164C4.97996 34.858 4.37481 35.0442 4.11641 35.5323C3.85801 36.0204 4.04421 36.6255 4.5323 36.8839L20.6853 45.4354C15.9287 49.3113 9.70149 54.3952 1.99949 60.6904ZM9 25.4827C7.05273 26.8516 5.22857 28.0102 3.0866 29.2875C2.90839 29.3937 2.73177 29.4986 2.5133 29.6281L2.00071 29.9317C1.61509 30.1604 1.37365 30.3053 1.16748 30.4328C0.908346 30.593 0.721353 30.7158 0.580114 30.8214C0.502569 30.8794 0.435288 30.9345 0.374329 30.9925C0.146098 31.1778 0 31.4624 0 31.7814V60.879C0.0563079 62.6653 1.50402 64.0432 3.23842 63.9934L60.79 63.9938C62.496 64.0432 63.9437 62.6653 64 60.9115V31.8266C64.0002 31.8162 64.0002 31.8059 64 31.7956V31.7814C64 31.3319 63.7101 30.951 63.309 30.8193L55 25.4554V3.07895C55.0016 1.4322 53.7389 0.0751892 52.135 0.00103965L11.91 0C10.2611 0.0751891 8.99838 1.4322 9 3.07999V25.4827ZM32 34C39.7406 34 46 27.4999 46 19.5C46 11.5001 39.7406 5 32 5C24.2594 5 18 11.5001 18 19.5C18 27.4999 24.2594 34 32 34ZM32 32C25.3812 32 20 26.4118 20 19.5C20 12.5882 25.3812 7 32 7C38.6188 7 44 12.5882 44 19.5C44 26.4118 38.6188 32 32 32ZM32 18.1434L37.3243 13.2628C37.7314 12.8897 38.364 12.9172 38.7372 13.3243C39.1103 13.7314 39.0828 14.364 38.6757 14.7372L33.4799 19.5L38.6757 24.2628C39.0828 24.636 39.1103 25.2686 38.7372 25.6757C38.364 26.0828 37.7314 26.1103 37.3243 25.7372L32 20.8566L26.6757 25.7372C26.2686 26.1103 25.636 26.0828 25.2628 25.6757C24.8897 25.2686 24.9172 24.636 25.3243 24.2628L30.5201 19.5L25.3243 14.7372C24.9172 14.364 24.8897 13.7314 25.2628 13.3243C25.636 12.9172 26.2686 12.8897 26.6757 13.2628L32 18.1434Z" fill="url(#paint0_linear_5147_112023)"/>
<defs>
<linearGradient id="paint0_linear_5147_112023" x1="32.0001" y1="95.9926" x2="95.9951" y2="31.9925" gradientUnits="userSpaceOnUse">
<stop stop-color="#FF444F"/>
<stop offset="1" stop-color="#FF6444"/>
</linearGradient>
</defs>
</svg>

<svg width="64" height="64" fill="none" xmlns="http://www.w3.org/2000/svg"><path fill-rule="evenodd" clip-rule="evenodd" d="M11 26.012v12.033l11.369 6.019c3.17-2.581 5.575-4.535 7.218-5.861a4.009 4.009 0 014.851.02c1.632 1.317 4.03 3.263 7.198 5.838L53 38.045v-12.03a.8.8 0 010-.031V3.078c0-.55-.42-1.002-.91-1.025l-40.135-.001A1.015 1.015 0 0011 3.079v22.933zm32.322 19.42c4.75 3.864 10.977 8.936 18.678 15.215V32.355l-7-4.52v9.151l3.532-1.87a1 1 0 01.936 1.768l-16.146 8.548zm17.138 16.54C46.414 50.52 37.321 43.122 33.207 39.797c-.714-.54-1.7-.54-2.389-.02C26.68 43.122 17.604 50.52 3.593 61.972H60.46zM2 60.69V32.272c.063-.04.136-.087.22-.138.192-.12.425-.26.801-.482l.512-.303.578-.344A97.06 97.06 0 009 27.913v9.073l-3.532-1.87a1 1 0 00-.936 1.768l16.153 8.551A16804.78 16804.78 0 002 60.69zm7-35.207c-1.947 1.369-3.771 2.527-5.913 3.805l-.574.34-.512.304c-.386.228-.627.373-.834.5-.259.161-.446.284-.587.39a2.25 2.25 0 00-.206.17c-.228.186-.374.47-.374.79v29.097c.056 1.786 1.504 3.164 3.238 3.114H60.79c1.706.05 3.154-1.328 3.21-3.082V31.827a.8.8 0 000-.031v-.015c0-.45-.29-.83-.691-.962L55 25.455V3.08C55.002 1.432 53.739.075 52.135 0L11.91 0C10.261.075 8.998 1.432 9 3.08v22.403zM32 34c7.74 0 14-6.5 14-14.5S39.74 5 32 5s-14 6.5-14 14.5S24.26 34 32 34zm0-2c-6.619 0-12-5.588-12-12.5S25.381 7 32 7s12 5.588 12 12.5S38.619 32 32 32zm0-13.857l5.324-4.88a1 1 0 011.352 1.474L33.48 19.5l5.196 4.763a1 1 0 01-1.352 1.474L32 20.857l-5.324 4.88a1 1 0 01-1.352-1.474L30.52 19.5l-5.196-4.763a1 1 0 011.352-1.474L32 18.143z" fill="url(#paint0_linear_5147_112023)"/><defs><linearGradient id="paint0_linear_5147_112023" x1="32" y1="95.993" x2="95.995" y2="31.992" gradientUnits="userSpaceOnUse"><stop stop-color="#FF444F"/><stop offset="1" stop-color="#FF6444"/></linearGradient></defs></svg>
